TCanvas/fit3_5.svg

<svg xmlns="http://www.w3.org/2000/svg" viewBox="0 0 1200 800" preserveAspectRatio="none" width="1200" height="800">
 <path d="M0,0H1200V800H0Z" style="fill: white;"></path>
 <g>
  <g transform="translate(120,80)">
   <path d="M0,0H960V640H0Z" style="fill: white; stroke: black; stroke-width: 1;"></path>
   <svg x="0" y="0" overflow="hidden" width="960" height="640" viewBox="0 0 960 640">
    <g>
     <path d="M82,639h14M89,639v1M96,638h14M103,636v4M110,636h14M117,632v8M123,633h14M130,627v13M137,633h14M144,627v13M151,620h14M158,600v40M165,607h14M172,574v66M178,588h14M185,537v103M192,547h14M199,453v187M206,522h14M213,403v237M219,474h14M226,307v333M233,434h14M240,228v412M247,391h14M254,141v499M261,370h14M268,100v540M274,339h14M281,39v601M288,348h14M295,57v583M302,335h14M309,30v610M315,376h14M322,113v527M329,407h14M336,173v467M343,436h14M350,231v409M357,450h14M364,260v380M370,472h14M377,303v337M384,509h14M391,378v262M398,533h14M405,427v213M411,538h14M418,436v204M425,552h14M432,463v177M439,562h14M446,485v155M453,584h14M460,528v112M466,580h14M473,520v120M480,589h14M487,538v102M494,601h14M501,562v78M507,605h14M514,570v70M521,607h14M528,573v67M535,612h14M542,584v56M549,611h14M556,581v59M562,611h14M569,581v59M576,618h14M583,597v43M590,619h14M597,598v42M603,621h14M610,603v37M617,629h14M624,618v22M631,622h14M638,604v36M645,632h14M652,623v17M658,627h14M665,614v26M672,630h14M679,619v21M686,632h14M693,623v17M699,632h14M706,624v16M713,630h14M720,620v20M727,630h14M734,620v20M741,631h14M748,622v18M754,633h14M761,625v15M768,634h14M775,628v12M782,634h14M789,628v12M795,635h14M802,630v10M809,633h14M816,625v15M823,636h14M830,631v9M837,636h14M844,631v9M850,635h14M857,630v10M864,636h14M871,633v7M878,634h14M885,628v12M891,637h14M898,635v5M905,638h14M912,636v4M919,636h14M926,631v9M933,638h14M940,636v4M946,636h14M953,631v9M960,639h14M967,637v3M974,637h14M981,633v7" style="stroke: #00009a; stroke-width: 1;"></path>
    </g>
    <g>
     <path d="M103.77,638.55C105.31,638.4,110.05,638.01,113.11,637.62S119.45,636.76,122.45,636.19S128.9,634.86,131.79,634.04S138.45,632.01,141.13,630.93S148.09,627.85,150.47,626.53S157.82,621.98,159.81,620.48S167.57,613.98,169.14,612.43S177.28,603.52,178.48,602S186.91,590.32,187.82,588.9S196.47,574.24,197.16,572.94S205.95,555.29,206.5,554.1S215.39,533.67,215.84,532.57S224.79,509.82,225.18,508.79S234.16,484.45,234.52,483.45S243.5,458.47,243.86,457.48S252.81,433,253.2,431.97S262.08,409.25,262.54,408.14S271.27,388.4,271.88,387.17S280.32,371.54,281.22,370.12S289.04,359.42,290.56,357.87S297.26,352.06,299.89,350.94S306.18,349.14,309.23,349.55S316.47,352.1,318.57,353.55S326.61,360.93,327.91,362.47S336.36,374.17,337.25,375.57S345.9,390.67,346.59,391.96S355.34,409.43,355.93,410.65S364.72,429.48,365.27,430.66S374.06,449.92,374.61,451.1S383.37,470.01,383.95,471.22S392.66,489.16,393.29,490.41S401.91,506.94,402.63,508.26S411.13,523.11,411.97,524.49S420.31,537.55,421.31,539S429.46,550.27,430.64,551.78S438.59,561.35,439.98,562.9S447.69,570.94,449.32,572.49S456.79,579.19,458.66,580.72S465.9,586.27,468,587.73S475.04,592.35,477.34,593.72S484.2,597.56,486.68,598.81S493.4,602.03,496.02,603.17S502.62,605.88,505.36,606.9S511.87,609.21,514.7,610.11S521.15,612.08,524.04,612.88S530.43,614.58,533.38,615.29S539.74,616.77,542.72,617.4S549.05,618.68,552.05,619.24S558.36,620.37,561.39,620.87S567.69,621.87,570.73,622.31S577.01,623.2,580.07,623.6S586.34,624.39,589.41,624.75S595.67,625.46,598.75,625.78S605.01,626.42,608.09,626.71S614.34,627.29,617.43,627.55S623.67,628.08,626.77,628.32S633.01,628.79,636.11,629.01S642.35,629.45,645.45,629.65S651.68,630.04,654.79,630.23S661.02,630.59,664.13,630.76S670.36,631.1,673.47,631.26S679.7,631.56,682.8,631.71S689.04,631.99,692.14,632.13S698.38,632.39,701.48,632.51S707.71,632.76,710.82,632.87S717.05,633.1,720.16,633.21S726.39,633.42,729.5,633.52S735.73,633.72,738.84,633.81S745.07,634,748.18,634.08S754.41,634.26,757.52,634.34S763.75,634.5,766.86,634.58S773.09,634.73,776.2,634.8S782.43,634.94,785.54,635.01S791.76,635.14,794.88,635.21S801.1,635.33,804.22,635.39S810.44,635.51,813.55,635.57S819.78,635.68,822.89,635.73S829.12,635.84,832.23,635.89S838.46,635.99,841.57,636.04S847.8,636.13,850.91,636.18S857.14,636.27,860.25,636.31S866.48,636.4,869.59,636.44S875.82,636.52,878.93,636.56S885.16,636.63,888.27,636.67S894.5,636.74,897.61,636.78S903.83,636.85,906.95,636.88S913.17,636.95,916.29,636.98S922.51,637.04,925.63,637.07S931.85,637.14,934.97,637.16S941.19,637.22,944.3,637.25S950.53,637.3,953.64,637.33S959.87,637.38,962.98,637.41S970.77,637.47,972.32,637.48" style="fill: none; stroke: red; stroke-width: 2;"></path>
    </g>
   </svg>
   <g>
    <g transform="translate(0,640)">
     <path d="M0,0h960M0,-24v24m27,-12v12m28,-12v12m27,-12v12m28,-12v12m27,-24v24m28,-12v12m27,-12v12m27,-12v12m28,-12v12m27,-24v24m28,-12v12m27,-12v12m28,-12v12m27,-12v12m27,-24v24m28,-12v12m27,-12v12m28,-12v12m27,-12v12m28,-24v24m27,-12v12m27,-12v12m28,-12v12m27,-12v12m28,-24v24m27,-12v12m28,-12v12m27,-12v12m27,-12v12m28,-24v24m27,-12v12m28,-12v12m27,-12v12m28,-12v12m27,-24v24" style="stroke: black; stroke-width: 1;"></path>
     <g font-family="Arial" font-size="28" space="preserve" fill="black" text-anchor="middle">
      <text dy=".8em" transform="translate(0,6)">
       0
      </text>
      <text dy=".8em" transform="translate(137,6)">
       10
      </text>
      <text dy=".8em" transform="translate(274,6)">
       20
      </text>
      <text dy=".8em" transform="translate(411,6)">
       30
      </text>
      <text dy=".8em" transform="translate(549,6)">
       40
      </text>
      <text dy=".8em" transform="translate(686,6)">
       50
      </text>
      <text dy=".8em" transform="translate(823,6)">
       60
      </text>
      <text dy=".8em" transform="translate(960,6)">
       70
      </text>
     </g>
    </g>
    <g>
     <path d="M0,0v640M36,640h-36m18,-18h-18m18,-19h-18m18,-18h-18m36,-18h-36m18,-19h-18m18,-18h-18m18,-18h-18m36,-19h-36m18,-18h-18m18,-18h-18m18,-18h-18m36,-19h-36m18,-18h-18m18,-18h-18m18,-19h-18m36,-18h-36m18,-18h-18m18,-19h-18m18,-18h-18m36,-18h-36m18,-19h-18m18,-18h-18m18,-18h-18m36,-19h-36m18,-18h-18m18,-18h-18m18,-19h-18m36,-18h-36m18,-18h-18m18,-18h-18m18,-19h-18m36,-18h-36m18,-18h-18m18,-19h-18" style="stroke: black; stroke-width: 1;"></path>
     <g font-family="Arial" font-size="28" space="preserve" fill="black" text-anchor="end">
      <text dy=".4em" transform="translate(-4,640)">
       0
      </text>
      <text dy=".4em" transform="translate(-4,567)">
       200
      </text>
      <text dy=".4em" transform="translate(-4,493)">
       400
      </text>
      <text dy=".4em" transform="translate(-4,420)">
       600
      </text>
      <text dy=".4em" transform="translate(-4,347)">
       800
      </text>
      <text dy=".4em" transform="translate(-4,274)">
       1000
      </text>
      <text dy=".4em" transform="translate(-4,200)">
       1200
      </text>
      <text dy=".4em" transform="translate(-4,127)">
       1400
      </text>
      <text dy=".4em" transform="translate(-4,54)">
       1600
      </text>
     </g>
    </g>
   </g>
  </g>
  <g transform="translate(120,4)" font-family="Arial" font-size="40" space="preserve">
   <text fill="black" text-anchor="middle" dy=".8em" transform="translate(480)">
    Signal-to-noise
   </text>
  </g>
  <g transform="translate(936,52)" font-family="Arial" font-size="25" space="preserve" fill="black">
   <path d="M0,0H240V128H0Z" style="fill: white; stroke: black; stroke-width: 1;"></path>
   <text text-anchor="middle" dy=".4em" transform="translate(120,16)">
    snr
   </text>
   <text text-anchor="start" dy=".4em" transform="translate(12,48)">
    Entries
   </text>
   <text text-anchor="end" dy=".4em" transform="translate(228,48)">
    100
   </text>
   <text text-anchor="start" dy=".4em" transform="translate(12,80)">
    Mean
   </text>
   <text text-anchor="end" dy=".4em" transform="translate(228,80)">
    25.15
   </text>
   <text text-anchor="start" dy=".4em" transform="translate(12,112)">
    Std Dev
   </text>
   <text text-anchor="end" dy=".4em" transform="translate(228,112)">
    8.988
   </text>
   <path d="M0,32h240" style="stroke: black; stroke-width: 1;"></path>
  </g>
 </g>
</svg>

<svg xmlns="http://www.w3.org/2000/svg" viewBox="0 0 1200 800" preserveAspectRatio="none" width="1200" height="800">
 <path d="M0,0H1200V800H0Z" style="fill: white;"></path>
 <g>
  <g transform="translate(120,80)">
   <path d="M0,0H960V640H0Z" style="fill: white; stroke: black; stroke-width: 1;"></path>
   <svg x="0" y="0" overflow="hidden" width="960" height="640" viewBox="0 0 960 640">
    <g>
     <path d="M82,639h14M89,639v1M96,638h14M103,636v4M110,636h14M117,632v8M123,633h14M130,627v13M137,633h14M144,627v13M151,620h14M158,600v40M165,607h14M172,574v66M178,588h14M185,537v103M192,547h14M199,453v187M206,522h14M213,403v237M219,474h14M226,307v333M233,434h14M240,228v412M247,391h14M254,141v499M261,370h14M268,100v540M274,339h14M281,39v601M288,348h14M295,57v583M302,335h14M309,30v610M315,376h14M322,113v527M329,407h14M336,173v467M343,436h14M350,231v409M357,450h14M364,260v380M370,472h14M377,303v337M384,509h14M391,378v262M398,533h14M405,427v213M411,538h14M418,436v204M425,552h14M432,463v177M439,562h14M446,485v155M453,584h14M460,528v112M466,580h14M473,520v120M480,589h14M487,538v102M494,601h14M501,562v78M507,605h14M514,570v70M521,607h14M528,573v67M535,612h14M542,584v56M549,611h14M556,581v59M562,611h14M569,581v59M576,618h14M583,597v43M590,619h14M597,598v42M603,621h14M610,603v37M617,629h14M624,618v22M631,622h14M638,604v36M645,632h14M652,623v17M658,627h14M665,614v26M672,630h14M679,619v21M686,632h14M693,623v17M699,632h14M706,624v16M713,630h14M720,620v20M727,630h14M734,620v20M741,631h14M748,622v18M754,633h14M761,625v15M768,634h14M775,628v12M782,634h14M789,628v12M795,635h14M802,630v10M809,633h14M816,625v15M823,636h14M830,631v9M837,636h14M844,631v9M850,635h14M857,630v10M864,636h14M871,633v7M878,634h14M885,628v12M891,637h14M898,635v5M905,638h14M912,636v4M919,636h14M926,631v9M933,638h14M940,636v4M946,636h14M953,631v9M960,639h14M967,637v3M974,637h14M981,633v7" style="stroke: #00009a; stroke-width: 1;"></path>
    </g>
    <g>
     <path d="M103.77,638.55C105.31,638.4,110.05,638.01,113.11,637.62S119.45,636.76,122.45,636.19S128.9,634.86,131.79,634.04S138.45,632.01,141.13,630.93S148.09,627.85,150.47,626.53S157.82,621.98,159.81,620.48S167.57,613.98,169.14,612.43S177.28,603.52,178.48,602S186.91,590.32,187.82,588.9S196.47,574.24,197.16,572.94S205.95,555.29,206.5,554.1S215.39,533.67,215.84,532.57S224.79,509.82,225.18,508.79S234.16,484.45,234.52,483.45S243.5,458.47,243.86,457.48S252.81,433,253.2,431.97S262.08,409.25,262.54,408.14S271.27,388.4,271.88,387.17S280.32,371.54,281.22,370.12S289.04,359.42,290.56,357.87S297.26,352.06,299.89,350.94S306.18,349.14,309.23,349.55S316.47,352.1,318.57,353.55S326.61,360.93,327.91,362.47S336.36,374.17,337.25,375.57S345.9,390.67,346.59,391.96S355.34,409.43,355.93,410.65S364.72,429.48,365.27,430.66S374.06,449.92,374.61,451.1S383.37,470.01,383.95,471.22S392.66,489.16,393.29,490.41S401.91,506.94,402.63,508.26S411.13,523.11,411.97,524.49S420.31,537.55,421.31,539S429.46,550.27,430.64,551.78S438.59,561.35,439.98,562.9S447.69,570.94,449.32,572.49S456.79,579.19,458.66,580.72S465.9,586.27,468,587.73S475.04,592.35,477.34,593.72S484.2,597.56,486.68,598.81S493.4,602.03,496.02,603.17S502.62,605.88,505.36,606.9S511.87,609.21,514.7,610.11S521.15,612.08,524.04,612.88S530.43,614.58,533.38,615.29S539.74,616.77,542.72,617.4S549.05,618.68,552.05,619.24S558.36,620.37,561.39,620.87S567.69,621.87,570.73,622.31S577.01,623.2,580.07,623.6S586.34,624.39,589.41,624.75S595.67,625.46,598.75,625.78S605.01,626.42,608.09,626.71S614.34,627.29,617.43,627.55S623.67,628.08,626.77,628.32S633.01,628.79,636.11,629.01S642.35,629.45,645.45,629.65S651.68,630.04,654.79,630.23S661.02,630.59,664.13,630.76S670.36,631.1,673.47,631.26S679.7,631.56,682.8,631.71S689.04,631.99,692.14,632.13S698.38,632.39,701.48,632.51S707.71,632.76,710.82,632.87S717.05,633.1,720.16,633.21S726.39,633.42,729.5,633.52S735.73,633.72,738.84,633.81S745.07,634,748.18,634.08S754.41,634.26,757.52,634.34S763.75,634.5,766.86,634.58S773.09,634.73,776.2,634.8S782.43,634.94,785.54,635.01S791.76,635.14,794.88,635.21S801.1,635.33,804.22,635.39S810.44,635.51,813.55,635.57S819.78,635.68,822.89,635.73S829.12,635.84,832.23,635.89S838.46,635.99,841.57,636.04S847.8,636.13,850.91,636.18S857.14,636.27,860.25,636.31S866.48,636.4,869.59,636.44S875.82,636.52,878.93,636.56S885.16,636.63,888.27,636.67S894.5,636.74,897.61,636.78S903.83,636.85,906.95,636.88S913.17,636.95,916.29,636.98S922.51,637.04,925.63,637.07S931.85,637.14,934.97,637.16S941.19,637.22,944.3,637.25S950.53,637.3,953.64,637.33S959.87,637.38,962.98,637.41S970.77,637.47,972.32,637.48" style="fill: none; stroke: red; stroke-width: 2;"></path>
    </g>
   </svg>
   <g>
    <g transform="translate(0,640)">
     <path d="M0,0h960M0,-24V0M27,-12V0M55,-12V0M82,-12V0M110,-12V0M137,-24V0M165,-12V0M192,-12V0M219,-12V0M247,-12V0M274,-24V0M302,-12V0M329,-12V0M357,-12V0M384,-12V0M411,-24V0M439,-12V0M466,-12V0M494,-12V0M521,-12V0M549,-24V0M576,-12V0M603,-12V0M631,-12V0M658,-12V0M686,-24V0M713,-12V0M741,-12V0M768,-12V0M795,-12V0M823,-24V0M850,-12V0M878,-12V0M905,-12V0M933,-12V0M960,-24V0" style="stroke: black; stroke-width: 1;"></path>
     <g font-family="Arial" font-size="28" space="preserve" fill="black" text-anchor="middle">
      <text dy=".8em" transform="translate(0,6)">
       0
      </text>
      <text dy=".8em" transform="translate(137,6)">
       10
      </text>
      <text dy=".8em" transform="translate(274,6)">
       20
      </text>
      <text dy=".8em" transform="translate(411,6)">
       30
      </text>
      <text dy=".8em" transform="translate(549,6)">
       40
      </text>
      <text dy=".8em" transform="translate(686,6)">
       50
      </text>
      <text dy=".8em" transform="translate(823,6)">
       60
      </text>
      <text dy=".8em" transform="translate(960,6)">
       70
      </text>
     </g>
    </g>
    <g>
     <path d="M0,0v640M36,640H0M18,622H0M18,603H0M18,585H0M36,567H0M18,548H0M18,530H0M18,512H0M36,493H0M18,475H0M18,457H0M18,439H0M36,420H0M18,402H0M18,384H0M18,365H0M36,347H0M18,329H0M18,310H0M18,292H0M36,274H0M18,255H0M18,237H0M18,219H0M36,200H0M18,182H0M18,164H0M18,145H0M36,127H0M18,109H0M18,91H0M18,72H0M36,54H0M18,36H0M18,17H0" style="stroke: black; stroke-width: 1;"></path>
     <g font-family="Arial" font-size="28" space="preserve" fill="black" text-anchor="end">
      <text dy=".4em" transform="translate(-4,640)">
       0
      </text>
      <text dy=".4em" transform="translate(-4,567)">
       200
      </text>
      <text dy=".4em" transform="translate(-4,493)">
       400
      </text>
      <text dy=".4em" transform="translate(-4,420)">
       600
      </text>
      <text dy=".4em" transform="translate(-4,347)">
       800
      </text>
      <text dy=".4em" transform="translate(-4,274)">
       1000
      </text>
      <text dy=".4em" transform="translate(-4,200)">
       1200
      </text>
      <text dy=".4em" transform="translate(-4,127)">
       1400
      </text>
      <text dy=".4em" transform="translate(-4,54)">
       1600
      </text>
     </g>
    </g>
   </g>
  </g>
  <g transform="translate(120,4)" font-family="Arial" font-size="40" space="preserve">
   <text fill="black" text-anchor="middle" dy=".8em" transform="translate(480)">
    Signal-to-noise
   </text>
  </g>
  <g transform="translate(936,52)" font-family="Arial" font-size="25" space="preserve" fill="black">
   <path d="M0,0H240V128H0Z" style="fill: white; stroke: black; stroke-width: 1;"></path>
   <text text-anchor="middle" dy=".4em" transform="translate(120,16)">
    snr
   </text>
   <text text-anchor="start" dy=".4em" transform="translate(12,48)">
    Entries
   </text>
   <text text-anchor="end" dy=".4em" transform="translate(228,48)">
    100
   </text>
   <text text-anchor="start" dy=".4em" transform="translate(12,80)">
    Mean
   </text>
   <text text-anchor="end" dy=".4em" transform="translate(228,80)">
    25.15
   </text>
   <text text-anchor="start" dy=".4em" transform="translate(12,112)">
    Std Dev
   </text>
   <text text-anchor="end" dy=".4em" transform="translate(228,112)">
    8.988
   </text>
   <path d="M0,32h240" style="stroke: black; stroke-width: 1;"></path>
  </g>
 </g>
</svg>
